Origami/16x16/apps/distributor-logo-lubuntu.svg

<svg width="16" height="16" version="1.1" xmlns="http://www.w3.org/2000/svg">
 <circle cx="8" cy="8" r="8" style="fill:#0068c8"/>
 <path d="m9.799 2.65c-0.223-0.01-1.445 0.35-1.803 0.81-1.079 0.07-5.43 3.04-7.986 4.84 9e-3 0.19 0.024 0.38 0.047 0.57 1.162-0.44 2.515-0.91 3.062-0.91 0.108 0 0.187 0.02 0.223 0.06 0.21 0.25-0.685 1.45-1.61 2.81-0.239 0.35-0.481 0.71-0.712 1.06 0.073 0.14 0.151 0.27 0.232 0.4 1.271-1.59 2.868-3.58 3.31-3.65 0.022 0 0.047 0 0.063 0.01 0.079 0.1-1.381 2.42-2.686 4.56 0.147 0.17 0.301 0.34 0.461 0.49 0.634-0.87 1.321-1.83 1.987-2.74 1.388-1.92 2.617-3.72 3.217-3.73h0.054c1.845 0.01 3.649 4.64 4.598 7.54 0.135-0.09 0.267-0.18 0.396-0.27-0.455-3.25-1.525-8.59-3.75-10.08 0.239-0.16 0.26-0.97 0.26-0.97z" style="fill:#ffffff"/>
</svg>

<svg xmlns="http://www.w3.org/2000/svg" width="16" height="16" version="1.1">
 <circle style="fill:#0068c8" cx="8" cy="8" r="8"/>
 <path style="fill:#ffffff" d="M 9.799,2.65 C 9.576,2.64 8.354,3 7.996,3.46 6.917,3.53 2.566,6.5 0.01,8.3 0.019,8.49 0.034,8.68 0.057,8.87 1.219,8.43 2.572,7.96 3.119,7.96 3.227,7.96 3.306,7.98 3.342,8.02 3.552,8.27 2.657,9.47 1.732,10.83 1.493,11.18 1.251,11.54 1.02,11.89 1.093,12.03 1.171,12.16 1.252,12.29 2.523,10.7 4.12,8.71 4.562,8.64 4.584,8.64 4.609,8.64 4.625,8.65 4.704,8.75 3.244,11.07 1.939,13.21 2.086,13.38 2.24,13.55 2.4,13.7 3.034,12.83 3.721,11.87 4.387,10.96 5.775,9.04 7.004,7.24 7.604,7.23 V 7.23 C 7.622,7.23 7.638,7.23 7.658,7.23 9.503,7.24 11.307,11.87 12.256,14.77 12.391,14.68 12.523,14.59 12.652,14.5 12.197,11.25 11.127,5.91 8.902,4.42 9.141,4.26 9.162,3.45 9.162,3.45 Z"/>
</svg>
